X:5
O:Macedoine
M:C|
K:C
de^fg f3 A | de^f f3 A | de^fg f3 d | e2 ed dAdA |
de^fg fefd | de^fg fefd | de^fg f3 d | e2 ed d2 z2 ||
